icons/discussion-duplicate-16.svg

<svg width="16" height="16" viewBox="0 0 16 16" fill="none" xmlns="http://www.w3.org/2000/svg">
<path fill-rule="evenodd" clip-rule="evenodd" d="M1.75 2.5C1.61193 2.5 1.5 2.61193 1.5 2.75V8.25C1.5 8.38807 1.61193 8.5 1.75 8.5H2.75C3.16421 8.5 3.5 8.83579 3.5 9.25V11.4393L6.21967 8.71967C6.36032 8.57902 6.55109 8.5 6.75 8.5H10.25C10.3881 8.5 10.5 8.38807 10.5 8.25V2.75C10.5 2.61193 10.3881 2.5 10.25 2.5H1.75ZM0 2.75C0 1.7835 0.783502 1 1.75 1H10.25C11.2165 1 12 1.7835 12 2.75V8.25C12 9.2165 11.2165 10 10.25 10H7.06066L4.48744 12.5732C4.21418 12.8465 3.84356 13 3.45711 13C2.65237 13 2 12.3476 2 11.5429V10H1.75C0.783502 10 0 9.2165 0 8.25V2.75ZM14.25 4.5C14.3881 4.5 14.5 4.61193 14.5 4.75V10.25C14.5 10.3881 14.3881 10.5 14.25 10.5H13.25C12.8358 10.5 12.5 10.8358 12.5 11.25V13.4393L10.2803 11.2197C9.98744 10.9268 9.51256 10.9268 9.21967 11.2197C8.92678 11.5126 8.92678 11.9874 9.21967 12.2803L11.5126 14.5732C11.7858 14.8465 12.1564 15 12.5429 15C13.3476 15 14 14.3476 14 13.5429V12H14.25C15.2165 12 16 11.2165 16 10.25V4.75C16 3.7835 15.2165 3 14.25 3H13.75C13.3358 3 13 3.33579 13 3.75C13 4.16421 13.3358 4.5 13.75 4.5H14.25ZM7.96783 4.53033C8.26072 4.23744 8.26072 3.76256 7.96783 3.46967C7.67494 3.17678 7.20006 3.17678 6.90717 3.46967L3.96967 6.40717C3.67678 6.70006 3.67678 7.17494 3.96967 7.46783C4.26256 7.76072 4.73744 7.76072 5.03033 7.46783L7.96783 4.53033Z" fill="black"/>
</svg>

<svg xmlns="http://www.w3.org/2000/svg" width="16" height="16" viewBox="0 0 16 16"><path d="M0 2.75C0 1.783.784 1 1.75 1h8.5c.967 0 1.75.783 1.75 1.75v5.5A1.75 1.75 0 0 1 10.25 10H7.061l-2.574 2.573A1.457 1.457 0 0 1 2 11.543V10h-.25A1.75 1.75 0 0 1 0 8.25Zm1.75-.25a.25.25 0 0 0-.25.25v5.5c0 .138.112.25.25.25h1a.75.75 0 0 1 .75.75v2.189L6.22 8.72a.747.747 0 0 1 .53-.22h3.5a.25.25 0 0 0 .25-.25v-5.5a.25.25 0 0 0-.25-.25Zm12.5 2h-.5a.75.75 0 0 1 0-1.5h.5c.967 0 1.75.783 1.75 1.75v5.5A1.75 1.75 0 0 1 14.25 12H14v1.543a1.457 1.457 0 0 1-2.487 1.03L9.22 12.28a.749.749 0 1 1 1.06-1.06l2.22 2.219V11.25a.75.75 0 0 1 .75-.75h1a.25.25 0 0 0 .25-.25v-5.5a.25.25 0 0 0-.25-.25Zm-6.282.03L5.03 7.468a.749.749 0 1 1-1.06-1.061L6.907 3.47a.75.75 0 0 1 1.061 1.06Z"/></svg>
